SFASUI/public/images/icon.svg

<svg width="40" height="40" viewBox="0 0 40 40" fill="none" xmlns="http://www.w3.org/2000/svg">
<circle opacity="0.2" cx="20" cy="20" r="20" fill="#C7522D"/>
<g clip-path="url(#clip0_39_6037)">
<path fill-rule="evenodd" clip-rule="evenodd" d="M26.0193 13.9967C22.6925 10.67 17.3021 10.6646 13.9818 13.985C10.6593 17.3085 10.6625 22.6967 13.9914 26.0235C17.3182 29.3503 22.7096 29.3546 26.0289 26.0342C29.3504 22.7139 29.3471 17.3235 26.0193 13.9967ZM21.7304 23.5903L19.9218 21.7817L18.1132 23.5903C17.375 24.3285 16.82 24.9714 15.9393 24.0917C15.0607 23.2121 15.7004 22.6571 16.4418 21.9178L18.2504 20.1103L16.4418 18.3017C15.7025 17.5635 15.0607 17.0085 15.9393 16.1278C16.82 15.2492 17.375 15.891 18.1132 16.6303L19.9218 18.4367L21.7304 16.6303C22.4696 15.8921 23.0214 15.2482 23.9021 16.1278C24.7829 17.0085 24.1411 17.5635 23.4018 18.3017L21.5932 20.1092L23.4018 21.9167C24.14 22.6571 24.7829 23.2121 23.9021 24.0917C23.0236 24.9714 22.4696 24.3285 21.7304 23.5903Z" fill="#C7522D"/>
</g>
<defs>
<clipPath id="clip0_39_6037">
<rect width="17.1429" height="17.1429" fill="white" transform="translate(11.4286 11.4286)"/>
</clipPath>
</defs>
</svg>

<svg width="40" height="40" fill="none" xmlns="http://www.w3.org/2000/svg"><circle opacity=".2" cx="20" cy="20" r="20" fill="#C7522D"/><g clip-path="url(#a)"><path fill-rule="evenodd" clip-rule="evenodd" d="M26.02 13.997c-3.328-3.327-8.718-3.332-12.038-.012-3.323 3.323-3.32 8.712.01 12.038 3.326 3.327 8.718 3.332 12.037.011 3.321-3.32 3.318-8.71-.01-12.037Zm-4.29 9.593-1.808-1.808-1.809 1.808c-.738.738-1.293 1.381-2.174.502-.878-.88-.239-1.435.503-2.174l1.808-1.808-1.808-1.808c-.74-.738-1.381-1.293-.503-2.174.881-.879 1.436-.237 2.174.502l1.809 1.807 1.808-1.807c.74-.738 1.291-1.382 2.172-.502.88.88.24 1.436-.5 2.174l-1.809 1.807 1.809 1.808c.738.74 1.38 1.295.5 2.175-.878.88-1.432.236-2.172-.502Z" fill="#C7522D"/></g><defs><clipPath id="a"><path fill="#fff" transform="translate(11.429 11.429)" d="M0 0h17.143v17.143H0z"/></clipPath></defs></svg>
